img/ok.svg

<svg fill="none" height="32" viewBox="0 0 32 32" width="32" xmlns="http://www.w3.org/2000/svg"><path d="m15.9814 16.455c-3.7667 0-6.89737-3.128-6.89737-6.82934 0-3.82933 3.13067-6.95867 6.89867-6.95867 3.896 0 6.8973 3.128 6.8973 6.95867-.0067 1.81744-.7347 3.55774-2.0241 4.83864-1.2893 1.2808-3.0345 1.9973-4.8519 1.992zm0-9.76534c-1.5947 0-2.808 1.34-2.808 2.93733 0 1.59471 1.2133 2.80801 2.8093 2.80801 1.66 0 2.8093-1.2133 2.8093-2.80801.0014-1.59866-1.1493-2.93733-2.8106-2.93733zm2.7466 15.44804 3.8974 3.7666c.7666.828.7666 2.0414 0 2.808-.8294.828-2.108.828-2.7467 0l-3.896-3.8306-3.768 3.8306c-.3827.3827-.8947.5734-1.4707.5734-.4466 0-.9573-.192-1.4053-.5734-.76667-.7666-.76667-1.98 0-2.8093l3.96-3.7667c-1.4301-.4235-2.802-1.0232-4.084-1.7853-.95867-.5107-1.14933-1.7867-.63867-2.7453.63867-.9574 1.78797-1.212 2.81067-.5734 1.3848.8451 2.9757 1.2922 4.598 1.2922s3.2132-.4471 4.598-1.2922c1.0227-.6386 2.2347-.384 2.8093.5734.576.9586.3187 2.2333-.576 2.7453-1.212.7667-2.6173 1.3413-4.0866 1.788z" fill="#04162c" fill-opacity=".5"/></svg>

<svg width="32" height="32" viewBox="0 0 32 32" fill="none" xmlns="http://www.w3.org/2000/svg">
<path d="M15.9814 16.455C12.2147 16.455 9.08403 13.327 9.08403 9.62566C9.08403 5.79633 12.2147 2.66699 15.9827 2.66699C19.8787 2.66699 22.88 5.79499 22.88 9.62566C22.8733 11.4431 22.1453 13.1834 20.8559 14.4643C19.5666 15.7451 17.8214 16.4616 16.004 16.4563L15.9814 16.455ZM15.9814 6.68966C14.3867 6.68966 13.1734 8.02966 13.1734 9.62699C13.1734 11.2217 14.3867 12.435 15.9827 12.435C17.6427 12.435 18.792 11.2217 18.792 9.62699C18.7934 8.02833 17.6427 6.68966 15.9814 6.68966ZM18.728 22.1377L22.6254 25.9043C23.392 26.7323 23.392 27.9457 22.6254 28.7123C21.796 29.5403 20.5174 29.5403 19.8787 28.7123L15.9827 24.8817L12.2147 28.7123C11.832 29.095 11.32 29.2857 10.744 29.2857C10.2974 29.2857 9.7867 29.0937 9.3387 28.7123C8.57203 27.9457 8.57203 26.7323 9.3387 25.903L13.2987 22.1363C11.8686 21.7128 10.4967 21.1131 9.2147 20.351C8.25603 19.8403 8.06537 18.5643 8.57603 17.6057C9.2147 16.6483 10.364 16.3937 11.3867 17.0323C12.7715 17.8774 14.3624 18.3245 15.9847 18.3245C17.607 18.3245 19.1979 17.8774 20.5827 17.0323C21.6054 16.3937 22.8174 16.6483 23.392 17.6057C23.968 18.5643 23.7107 19.839 22.816 20.351C21.604 21.1177 20.1987 21.6923 18.7294 22.139L18.728 22.1377Z" fill="#04162C" fill-opacity="0.5"/>
</svg>
